public/files/perm/idevices/base/az-quiz-game/export/exequextscore.svg

<svg fill="none" height="24" viewBox="0 0 24 24" width="24" xmlns="http://www.w3.org/2000/svg"><path d="m12 17c-3.58985 0-6.5-2.9101-6.5-6.5v-5.94444c0-.51817 0-.77725.09369-.97818.09936-.21307.27062-.38433.48369-.48369.20093-.09369.46001-.09369.97818-.09369h9.88884c.5182 0 .7773 0 .9782.09369.2131.09936.3843.27062.4837.48369.0937.20093.0937.46001.0937.97818v5.94444c0 3.5899-2.9101 6.5-6.5 6.5zm0 0v4m5 0h-10m15-16v5m-20-5v5" stroke="#fc0" stroke-linecap="round" stroke-linejoin="round" stroke-width="2"/></svg>

<svg width="24" height="24" viewBox="0 0 24 24" fill="none" xmlns="http://www.w3.org/2000/svg">
<path d="M12 17C8.41015 17 5.5 14.0899 5.5 10.5V4.55556C5.5 4.03739 5.5 3.77831 5.59369 3.57738C5.69305 3.36431 5.86431 3.19305 6.07738 3.09369C6.27831 3 6.53739 3 7.05556 3H16.9444C17.4626 3 17.7217 3 17.9226 3.09369C18.1357 3.19305 18.3069 3.36431 18.4063 3.57738C18.5 3.77831 18.5 4.03739 18.5 4.55556V10.5C18.5 14.0899 15.5899 17 12 17ZM12 17V21M17 21H7M22 5V10M2 5V10" stroke="#FFCC00" stroke-width="2" stroke-linecap="round" stroke-linejoin="round"/>
</svg>
